!!!COM: Anonymous
!!!OTL: Ostez la moi de mon oreille
!!!AGN: Song; Chanson; Virelai
!!!SCT: Ano3119
!!!SCA: Ano3119
!!!SMS: Dijon Chansonnier
!!!folio: 79v-81r
!!!SMS2: frag. in Cop
!!!voices: 3
**kern	**kern	**kern
*staff3	*staff2	*staff1
*Ivox	*Ivox	*Ivox
*I"Contra	*I"Tenor	*I"Discantus
*I'C	*I'T	*I'D
*clefGv2	*clefGv2	*clefG2
*k[]	*k[]	*k[]
*M2/1	*M2/1	*M2/1
*met(C|)	*met(C|)	*met(C|)
=1-	=1-	=1-
1r	0r	0r
1G	.	.
=2	=2	=2
1A	1r	0r
1F	1d	.
=3	=3	=3
0E	1e	0r
.	1c	.
=4	=4	=4
1r	0B	1r
1E	.	1g
=5	=5	=5
1F	1r	1a
1D	1A	1f
=6	=6	=6
1A	1c	1e
1B	1d	1d
=7	=7	=7
1.c	1e	1g
.	1c	1a
4B	.	.
4A	.	.
=8	=8	=8
0G	1B	1.b
.	1d	.
.	.	4a
.	.	4g
=9	=9	=9
1r	1.c	1a
1C	.	2g
.	4B	2f
.	4A	.
=10	=10	=10
1G	1B	0d
1B	1G	.
=11	=11	=11
1c	1A	1r
[1d	4G	1g
.	4F	.
.	2E	.
=12	=12	=12
1d]	0D	1a
1F	.	1a
=13	=13	=13
1G	1r	1b
1B	1B	1g
=14	=14	=14
0A	1c	1a
.	1c	1cc
=15	=15	=15
0G	1.d	1.b
.	4c	4a
.	4B	4g
=16	=16	=16
1c	1A	1f
2B	2G	1e
[2c	[2A	.
=17	=17	=17
4c]	2A]	1r
4A	.	.
2B	2G	.
2A	2F	1a
[2d	2D	.
=18	=18	=18
2d]	1E	2g
2c	.	1g
2d	1D	.
2A	.	4f
.	.	4e
=19	=19	=19
1B	1G	1d
1c	1A	1c
=20	=20	=20
1d	1B	1r
1r	1B	1g
=21	=21	=21
0G	1B	1g
.	1B	1g
=22	=22	=22
0F	2c	1a
.	1c	.
.	.	1r
.	4B	.
.	4A	.
=23	=23	=23
0E	0G	0b
=24	=24	=24
1r	0e	1b
[1E	.	1b
=25	=25	=25
1E]	1e	1b
1E	[1e	1g
=26	=26	=26
0C	1e]	0cc
.	1e	.
=27	=27	=27
1D	0d	1b
[1F	.	[1a
=28	=28	=28
1F]	1c	1a]
1G	1B	[1g
=29	=29	=29
0D	1.A	2g]
.	.	4f#i
.	.	4e
.	.	1f#i
.	2G	.
=30	=30	=30
1G	1E	1g
1F	1D	1a
=31	=31	=31
0D	1r	2g
.	.	1f
.	1d	.
.	.	4e
.	.	4d
=32	=32	=32
1r	0e	1c
1A	.	1r
=33	=33	=33
2A	0e	1cc
1A	.	.
.	.	[1cc
4G	.	.
4F	.	.
=34	=34	=34
2E	1e	1cc]
2F	.	.
1G	2d	1b
.	2B	.
=35	=35	=35
2F	1c	1.a
1F	.	.
.	[1d	.
4E	.	4g
4F	.	4a
=36	=36	=36
1G	2d]	1.b-i
.	2G	.
1r	1G	.
.	.	4a
.	.	4g
=37	=37	=37
2.D	1d	2f
.	.	2g
4E	.	.
1F	2c	1a
.	2d	.
=38	=38	=38
2E	1e	2g
2C	.	2e
2r	2d	1f
2D	2B	.
=39	=39	=39
2E	1c	1e
2F	.	.
2G	2B	2d
2B	2G	2g
=40	=40	=40
1A	1F	2a
.	.	1cc
1G	2E	.
.	2G	2b
=41	=41	=41
2F	2A	2a
4E	2B	4g
4D	.	4f
2C	2c	2e
[2G	2d	2d
=42	=42	=42
2G]	1G	2e
2E	.	1g
1D	1A	.
.	.	2f#i
=43	=43	=43
0d	0G	0g
!!LO:LB:i:g=z
=44||	=44||	=44||
*M2/1	*M2/1	*M2/1
*met(C|)	*met(C|)	*met(C|)
!!!OMD: Je ne veul plus etre amouroulx
!!section: Je ne veul plus etre amouroulx
0G	0d	0b
=45	=45	=45
1G	1d	1b
1F	1d	1a
=46	=46	=46
0E	0e	1g
.	.	[1cc
=47	=47	=47
1C	1e	1cc]
1G	[1d	1b
=48	=48	=48
2F	2d]	1a
2D	1c	.
1E	.	2.g
.	4B	.
.	4c	4e
=49	=49	=49
1D	1.d	0f
1r	.	.
.	4c	.
.	4B	.
=50	=50	=50
1E	1c	1r
1D	1d	1f
=51	=51	=51
1E	2B	1g
.	1c	.
1F	.	1a
.	2A	.
=52	=52	=52
1.G	0G	0b-i
[2E	.	.
=53	=53	=53
2E]	0c	1g
4F	.	.
4G	.	.
[1A	.	[1cc
=54	=54	=54
1A]	1e	1cc]
1D	1d	1b
=55	=55	=55
!	!	!LO:TX:Z=24:t=MSS&colon; a'
2E	0c	2g
1F	.	1a
4E	.	[2g
4F	.	.
=56	=56	=56
1.G	1B	2g]
.	.	4f
.	.	4e
.	1r	1d
2C	.	.
=57	=57	=57
0C	0e	1r
.	.	1g
=58	=58	=58
1r	1c	1a
1F	[1d	1a
=59	=59	=59
1G	1d]	1b
[1E	1G	1b
=60	=60	=60
1E]	1.c	1g
1C	.	2a
.	2B	[2cc
=61	=61	=61
1F	1A	2cc]
.	.	2b
1G	1G	[1b
=62	=62	=62
0D	0F	2b]
.	.	1a
.	.	4g
.	.	4a
=63	=63	=63
1dN	1GN	1.bN
2G	2B	.
2E	2c	4a
.	.	4g
=64	=64	=64
1D	2.d	2f
.	.	2d
.	4B	.
2C	2c	2e
[2G	2B	[2d
=65	=65	=65
2G]	1G	4d]
.	.	4e
2E	.	1g
1D	1A	.
.	.	2f#i
=66	=66	=66
0dl	0Gl	0gl
=||	=||	=||
*-	*-	*-
!!!RDF**kern: l=long note in original notation
!!!RDF**kern: i=editorial accidental
!!!RDF**kern: N=signum congruentiae
!!!ENC: Chris Gage 09-07-2016
!!!END: 2018/12/07/
!!!EED: Jesse Rodin
!!!EEV: 2018/12/07/
!!!ONB: Translated from MusicXML and edited on 2018/12/07/ by Craig Sapp
!!muse2ps: C^@{COM}\n@{SMS}, @{folio}; also @{SMS2}^v95,95,150c110i2
